icon-themes/breeze_svg/cmd/32/closedoc.svg

<svg viewBox="0 0 32 32" xmlns="http://www.w3.org/2000/svg"><path d="m16 4a12 12 0 0 0 -12 12 12 12 0 0 0 12 12 12 12 0 0 0 12-12 12 12 0 0 0 -12-12zm-5.292969 6 5.292969 5.292969 5.292969-5.292969s.725614.715646.707031.707031l-5.292969 5.292969 5.292969 5.292969s-.700659.705605-.707031.707031l-5.292969-5.292969-5.292969 5.292969c.00109-.004806-.707031-.707031-.707031-.707031l5.292969-5.292969-5.292969-5.292969c.020112.00109.707031-.707031.707031-.707031z" fill="#da4453"/></svg>

<svg xmlns="http://www.w3.org/2000/svg" viewBox="0 0 32 32">
 <path 
     style="fill:#da4453" 
     d="M 16 4 A 12 12 0 0 0 4 16 A 12 12 0 0 0 16 28 A 12 12 0 0 0 28 16 A 12 12 0 0 0 16 4 z M 10.707031 10 L 16 15.292969 L 21.292969 10 C 21.292969 10 22.018583 10.715646 22 10.707031 L 16.707031 16 L 22 21.292969 C 22 21.292969 21.299341 21.998574 21.292969 22 L 16 16.707031 L 10.707031 22 C 10.708121 21.995194 10 21.292969 10 21.292969 L 15.292969 16 L 10 10.707031 C 10.020112 10.708121 10.707031 10 10.707031 10 z "
     />
</svg>
